albertroad.htmlalbertroad.htmlalbertroad.htmlalbertroad.htmlalbertroad.htmlalbertroad.htmlalbertroad.htmlalbertroad.htmlalbertroad.html<PRE>T:Good Morning, Nightcap
T:Good Morning, Nightcap
M:C|
L:1/8
R:reel
D:Lúnasa: The Merry Sisters of Fate
Z:Devin McCabe
K:ADor
e3c dedB|cBcd e2dg|~e3c dedB|(3cBA (3BAG A2 (3Bcd|
!e3c dedB|cBcd e2dg|eg (3fga gedB|1(3cBA (3BAG A2Bd:|2(3cBA (3BAG AGED|
!|:E~A3 B~G3|cBcd e2dg|e~A3 B~G3|(3cBA (3BAG AGED|
!E~A3 B~G3|cBcd e2dg|e2fa gedB|1(3cBA (3BAG AGED:|2(3cBA (3BAG A2 (3Bcd||

%  ABC2Win Version 2.1 10/25/2001
albertroad.htmlalbertroad.htmlalbertroad.htmlalbertroad.htmlalbertroad.htmlalbertroad.htmlalbertroad.html